app/images/icons/white-label-icon.svg

<?xml version="1.0" encoding="UTF-8" standalone="no"?>
<svg width="76px" height="76px" viewBox="0 0 76 76" version="1.1" xmlns="http://www.w3.org/2000/svg" xmlns:xlink="http://www.w3.org/1999/xlink" xmlns:sketch="http://www.bohemiancoding.com/sketch/ns">
    <!-- Generator: Sketch 3.1 (8751) - http://www.bohemiancoding.com/sketch -->
    <title>white-label-icon</title>
    <desc>Created with Sketch.</desc>
    <defs></defs>
    <g id="Page-1" stroke="none" stroke-width="1" fill="none" fill-rule="evenodd" sketch:type="MSPage">
        <g id="white-label-icon" sketch:type="MSLayerGroup" fill="#1B1A19">
            <path d="M38,4.43333333 L48.8756,15.2 L38,15.2 L38,4.43333333 L38,4.43333333 Z M50.6666667,30.02 L53.2,30.02 L53.2,16.4679333 C53.2,16.34 53.1658,16.2133333 53.1024667,16.0879333 C53.0378667,15.8333333 52.9441333,15.7079333 52.8276,15.58 L37.6301333,0.38 C37.5148667,0.253333333 37.3755333,0.253333333 37.221,0.126666667 C37.0677333,0.126666667 36.9030667,0 36.7333333,0 L1.26666667,0 C0.567466667,0 0,0.633333333 0,1.26793333 L0,67.1333333 C0,67.8933333 0.567466667,68.4 1.26666667,68.4 L33.2082,68.4 L33.2082,65.8679333 L2.53333333,65.8679333 L2.53333333,2.53333333 L35.4666667,2.53333333 L35.4666667,16.4679333 C35.4666667,17.2266667 36.0341333,17.7333333 36.7333333,17.7333333 L50.6666667,17.7333333 L50.6666667,30.02 L50.6666667,30.02 Z" id="Fill-2179" sketch:type="MSShapeGroup"></path>
            <path d="M69.2423598,68.4 L66.8648265,67.0079333 C66.3986932,66.7533333 65.8147598,66.88 65.4056265,67.1333333 C64.2516932,68.1466667 62.8203598,69.0333333 61.2686932,69.54 C60.7721598,69.7933333 60.4428265,70.1746 60.4428265,70.8079333 L60.4428265,73.4679333 L53.3938265,73.4679333 L53.3938265,70.8079333 C53.3938265,70.1746 53.0644932,69.7933333 52.5692265,69.54 C50.9922265,69.0333333 49.5076932,68.1466667 48.3904932,67.1333333 C47.9838932,66.88 47.4012265,66.7533333 46.9363598,67.0079333 L44.5233598,68.4 L40.9969598,62.32 L43.3846265,60.9266667 C43.8482265,60.6746 44.0926932,60.1679333 43.9964265,59.6587333 C43.8431598,58.7746 43.7684265,58.0133333 43.7684265,57.2533333 C43.7684265,56.4933333 43.8431598,55.6079333 43.9976932,54.8466667 C44.0939598,54.34 43.8494932,53.7079333 43.3871598,53.4533333 L41.0020265,52.0587333 L44.5322265,45.98 L46.9350932,47.3746 C47.3986932,47.6266667 47.9813598,47.6266667 48.3904932,47.2466667 C49.5102265,46.2333333 50.9922265,45.4746 52.5679598,44.84 C53.0644932,44.7133333 53.3938265,44.2079333 53.3938265,43.7 L53.3938265,40.5333333 L60.4428265,40.5333333 L60.4428265,43.7 C60.4428265,44.2079333 60.7734265,44.7133333 61.2699598,44.84 C62.8190932,45.4746 64.2504265,46.2333333 65.4056265,47.2466667 C65.8147598,47.6266667 66.4037598,47.6266667 66.8660932,47.3746 L69.2334932,45.98 L72.7560932,52.0587333 L70.3658932,53.4533333 C69.9022932,53.7079333 69.6578265,54.34 69.7540932,54.8466667 C69.9086265,55.6079333 69.9833598,56.4933333 69.9833598,57.2533333 C69.9833598,58.0133333 69.9098932,58.7746 69.7553598,59.6587333 C69.6590932,60.1679333 69.9048265,60.6746 70.3684265,60.9266667 L72.7624265,62.32 L69.2423598,68.4 L69.2423598,68.4 Z M75.1260265,60.8 L72.3874932,59.1533333 C72.4736265,58.52 72.5166932,57.8879333 72.5166932,57.2533333 C72.5166932,56.62 72.4736265,55.9879333 72.3862265,55.2266667 L75.1196932,53.7079333 C75.7264265,53.3266667 75.9328932,52.5679333 75.5845598,51.9333333 L70.7927598,43.7 C70.6255598,43.32 70.3468932,43.1933333 70.0226265,43.0679333 C69.6970932,42.94 69.3512932,43.0679333 69.0599598,43.1933333 L66.3442265,44.7133333 C65.3346932,43.9533333 64.1934265,43.32 62.9761598,42.8133333 L62.9761598,39.2679333 C62.9761598,38.6333333 62.4099598,38 61.7094932,38 L52.1271598,38 C51.4279598,38 50.8604932,38.6333333 50.8604932,39.2679333 L50.8604932,42.8133333 C49.8458932,43.1933333 48.6273598,43.8266667 47.4506265,44.7133333 L44.6994265,43.1933333 C44.0926932,42.8133333 43.3200265,43.0679333 42.9716932,43.7 L38.1748265,51.9333333 C37.8252265,52.5679333 38.0329598,53.3266667 38.6371598,53.7079333 L41.3668265,55.2266667 C41.2794265,55.9879333 41.2350932,56.62 41.2350932,57.2533333 C41.2350932,57.8879333 41.2781598,58.52 41.3642932,59.1533333 L38.6333598,60.8 C38.0278932,61.0533333 37.8201598,61.8133333 38.1697598,62.4466667 L42.9602932,70.8079333 C43.3111598,71.44 44.0825598,71.5679333 44.6880265,71.1879333 L47.4493598,69.6679333 C48.6260932,70.5533333 49.8446265,71.1879333 50.8604932,71.5679333 L50.8604932,74.7333333 C50.8604932,75.4933333 51.4279598,76 52.1271598,76 L61.7094932,76 C62.4099598,76 62.9761598,75.4933333 62.9761598,74.7333333 L62.9761598,71.5679333 C64.1946932,71.0587333 65.3359598,70.4266667 66.3454932,69.6679333 L69.0713598,71.1879333 C69.3614265,71.44 69.7072265,71.44 70.0327598,71.3133333 C70.3570265,71.3133333 70.6344265,71.0587333 70.8028932,70.8079333 L75.5896265,62.4466667 C75.9392265,61.8133333 75.7314932,61.0533333 75.1260265,60.8 L75.1260265,60.8 Z" id="Fill-2180" sketch:type="MSShapeGroup"></path>
            <path d="M57,62.0666667 C54.207,62.0666667 51.9333333,59.7866667 51.9333333,57 C51.9333333,54.2146 54.207,51.9346 57,51.9346 C59.7942667,51.9346 62.0666667,54.2146 62.0666667,57 C62.0666667,59.7866667 59.7942667,62.0666667 57,62.0666667 L57,62.0666667 Z M57,49.4 C52.8098667,49.4 49.4,52.8212667 49.4,57 C49.4,61.18 52.8098667,64.6 57,64.6 C61.1914,64.6 64.6,61.18 64.6,57 C64.6,52.8212667 61.1914,49.4 57,49.4 L57,49.4 Z" id="Fill-2181" sketch:type="MSShapeGroup"></path>
        </g>
    </g>
</svg>

<svg width="76" height="76" viewBox="0 0 76 76" xmlns="http://www.w3.org/2000/svg">
    <desc>
        Created with Sketch.
    </desc>
    <g fill="#1B1A19">
        <path d="M38 4.433L48.876 15.2H38V4.433zM50.667 30.02H53.2V16.468c0-.128-.034-.255-.098-.38-.064-.255-.158-.38-.274-.508L37.63.38c-.115-.127-.254-.127-.41-.253-.152 0-.317-.127-.487-.127H1.267C.567 0 0 .633 0 1.268v65.865c0 .76.567 1.267 1.267 1.267h31.94v-2.532H2.534V2.533h32.934v13.935c0 .76.567 1.265 1.266 1.265h13.934V30.02z"/>
        <path d="M69.242 68.4l-2.377-1.392c-.466-.255-1.05-.128-1.46.125-1.153 1.014-2.585 1.9-4.136 2.407-.498.253-.827.635-.827 1.268v2.66h-7.05v-2.66c0-.633-.33-1.015-.824-1.268-1.578-.507-3.062-1.393-4.18-2.407-.406-.253-.99-.38-1.454-.125L44.523 68.4l-3.526-6.08 2.388-1.393c.463-.252.708-.76.61-1.268-.152-.885-.227-1.647-.227-2.407s.075-1.645.23-2.406c.096-.507-.15-1.14-.61-1.394L41 52.06l3.53-6.08 2.403 1.395c.464.252 1.046.252 1.455-.128 1.12-1.014 2.602-1.772 4.178-2.407.496-.127.826-.632.826-1.14v-3.167h7.05V43.7c0 .508.33 1.013.826 1.14 1.55.635 2.98 1.393 4.136 2.407.41.38.998.38 1.46.128l2.367-1.395 3.523 6.08-2.39 1.393c-.464.255-.708.887-.612 1.394.155.76.23 1.646.23 2.406 0 .76-.074 1.522-.23 2.406-.095.508.15 1.015.614 1.267l2.394 1.393-3.52 6.08zm5.884-7.6l-2.74-1.647c.088-.633.13-1.265.13-1.9 0-.633-.042-1.265-.13-2.026l2.734-1.52c.606-.38.813-1.14.465-1.774L70.793 43.7c-.167-.38-.446-.507-.77-.632-.326-.128-.672 0-.963.125l-2.716 1.52c-1.01-.76-2.15-1.393-3.368-1.9v-3.545c0-.635-.566-1.268-1.267-1.268h-9.583c-.7 0-1.267.633-1.267 1.268v3.545c-1.014.38-2.233 1.014-3.41 1.9l-2.75-1.52c-.607-.38-1.38-.125-1.728.507l-4.797 8.233c-.35.635-.142 1.394.462 1.775l2.73 1.52c-.088.76-.132 1.392-.132 2.025 0 .635.043 1.267.13 1.9L38.632 60.8c-.605.253-.813 1.013-.463 1.647l4.79 8.36c.35.633 1.123.76 1.728.38l2.76-1.52c1.178.886 2.397 1.52 3.412 1.9v3.166c0 .76.568 1.267 1.267 1.267h9.582c.7 0 1.266-.507 1.266-1.267v-3.165c1.22-.51 2.36-1.14 3.37-1.9l2.725 1.52c.29.252.637.252.963.125.324 0 .6-.254.77-.505l4.787-8.36c.35-.635.14-1.395-.464-1.648z"/>
        <path d="M57 62.067c-2.793 0-5.067-2.28-5.067-5.067 0-2.785 2.274-5.065 5.067-5.065 2.794 0 5.067 2.28 5.067 5.065 0 2.787-2.273 5.067-5.067 5.067zM57 49.4c-4.19 0-7.6 3.42-7.6 7.6s3.41 7.6 7.6 7.6c4.19 0 7.6-3.42 7.6-7.6s-3.41-7.6-7.6-7.6z"/>
    </g>
</svg>
